dist/svgs/unicons/line/folder-lock.svg

<svg xmlns="http://www.w3.org/2000/svg" viewBox="0 0 24 24"><path d="M4 4h4.56a1 1 0 01.95.68l.54 1.64A1 1 0 0011 7h7a1 1 0 011 1 1 1 0 002 0 3 3 0 00-3-3h-6.28l-.32-1a3 3 0 00-2.84-2H4a3 3 0 00-3 3v13a3 3 0 003 3h6a1 1 0 000-2H4a1 1 0 01-1-1V5a1 1 0 011-1zm17 11.18V14a3 3 0 00-6 0v1.18A3 3 0 0013 18v2a3 3 0 003 3h4a3 3 0 003-3v-2a3 3 0 00-2-2.82zM17 14a1 1 0 012 0v1h-2zm4 6a1 1 0 01-1 1h-4a1 1 0 01-1-1v-2a1 1 0 011-1h4a1 1 0 011 1z"/></svg>

<svg xmlns="http://www.w3.org/2000/svg" viewBox="0 0 24 24"><path d="M4,4H8.56a1,1,0,0,1,.95.68l.54,1.64A1,1,0,0,0,11,7h7a1,1,0,0,1,1,1,1,1,0,0,0,2,0,3,3,0,0,0-3-3H11.72l-.32-1A3,3,0,0,0,8.56,2H4A3,3,0,0,0,1,5V18a3,3,0,0,0,3,3h6a1,1,0,0,0,0-2H4a1,1,0,0,1-1-1V5A1,1,0,0,1,4,4ZM21,15.18V14a3,3,0,0,0-6,0v1.18A3,3,0,0,0,13,18v2a3,3,0,0,0,3,3h4a3,3,0,0,0,3-3V18A3,3,0,0,0,21,15.18ZM17,14a1,1,0,0,1,2,0v1H17Zm4,6a1,1,0,0,1-1,1H16a1,1,0,0,1-1-1V18a1,1,0,0,1,1-1h4a1,1,0,0,1,1,1Z"/></svg>
